X: 16570
T: Hammersmith Flyover, The
R: jig
M: 6/8
K: Gmixolydian
|:G2G ABc|dcB cBA|G2G d2d|cde d3|
g2d gag|f2d e2c|d2B cBA|Bcd G3:|
|:D2D EDC|DED G,3|DEF G2G|FDC D2D|
A2A B2B|A2G ^F2D|^FGA D2D|EDC D3:|

